Project/img/prev.svg

<svg xmlns="http://www.w3.org/2000/svg" xmlns:xlink="http://www.w3.org/1999/xlink" preserveAspectRatio="xMidYMid" width="12" height="21" viewBox="0 0 12 21">
  <defs>
    <style>
      .cls-1 {
        fill: #ccc;
        fill-rule: evenodd;
      }
    </style>
  </defs>
  <path d="M11.477,18.359 L3.619,10.502 L11.581,2.539 L11.580,2.539 C11.839,2.269 12.000,1.903 12.000,1.497 C12.000,0.669 11.329,-0.002 10.501,-0.002 C10.096,-0.002 9.730,0.157 9.459,0.419 L9.459,0.418 L0.459,9.418 L0.460,9.419 C0.177,9.691 0.001,10.074 0.001,10.498 C0.001,10.499 0.001,10.501 0.001,10.502 C0.001,10.503 0.001,10.504 0.001,10.505 C0.001,10.928 0.177,11.311 0.460,11.584 L0.459,11.584 L9.459,20.584 L9.462,20.581 C9.732,20.839 10.098,20.998 10.501,20.998 C11.329,20.998 12.000,20.327 12.000,19.498 C12.000,19.043 11.798,18.635 11.477,18.359 Z" class="cls-1"/>
</svg>

<svg xmlns="http://www.w3.org/2000/svg" width="12" height="21" preserveAspectRatio="xMidYMid"><defs><style>.cls-1 { fill: #ccc; fill-rule: evenodd; }</style></defs><path d="M11.48 18.36L3.62 10.5l7.96-7.96c.26-.27.42-.64.42-1.04 0-.83-.67-1.5-1.5-1.5-.4 0-.77.16-1.04.42l-9 9C.18 9.7 0 10.07 0 10.5c0 .43.18.8.46 1.08l9 9c.27.26.64.42 1.04.42.83 0 1.5-.67 1.5-1.5 0-.46-.2-.86-.52-1.14z" class="cls-1"/></svg>
